Simply-Purple-Circles/scalable/apps/org.kde.plasma.activitypager.svg

<svg xmlns="http://www.w3.org/2000/svg" width="48" height="48" viewBox="0 0 12.7 12.7"><path d="M6.34.07a6.29 6.29 0 0 0-6.29 6.3 6.29 6.29 0 0 0 6.3 6.28 6.29 6.29 0 0 0 6.28-6.29A6.29 6.29 0 0 0 6.34.07zM6.32 1l.01.01a5.4 5.4 0 0 1 5.4 5.4 5.4 5.4 0 0 1-5.4 5.41 5.4 5.4 0 0 1-5.41-5.4A5.4 5.4 0 0 1 6.32 1zM4.012 2.784a.233.233 0 0 0-.19.107c-.238.356-.487.834-.726 1.27l-.272-.544a.233.233 0 0 0-.417.209l.466.933a.233.233 0 0 0 .412.013c.303-.525.647-1.205.925-1.621a.233.233 0 0 0-.198-.367zm.703.937a.466.466 0 1 0 0 .934h5.136a.466.466 0 1 0 0-.934H4.715zM3.081 5.822a.467.467 0 0 0-.467.467.467.467 0 0 0 .467.467.467.467 0 0 0 .467-.467.467.467 0 0 0-.467-.467zm1.634 0a.466.466 0 1 0 0 .934h5.136a.466.466 0 1 0 0-.934H4.715zM3.081 7.924a.467.467 0 0 0-.467.466.467.467 0 0 0 .467.467.467.467 0 0 0 .467-.467.467.467 0 0 0-.467-.466zm1.634 0a.466.466 0 1 0 0 .933h5.136a.466.466 0 1 0 0-.933H4.715z" stroke-width="3.78" fill="#963996"/></svg>

<?xml version="1.0" encoding="UTF-8" standalone="no"?>
<svg
   xmlns:dc="http://purl.org/dc/elements/1.1/"
   xmlns:cc="http://creativecommons.org/ns#"
   xmlns:rdf="http://www.w3.org/1999/02/22-rdf-syntax-ns#"
   xmlns:svg="http://www.w3.org/2000/svg"
   xmlns="http://www.w3.org/2000/svg"
   xmlns:sodipodi="http://sodipodi.sourceforge.net/DTD/sodipodi-0.dtd"
   xmlns:inkscape="http://www.inkscape.org/namespaces/inkscape"
   width="48"
   height="48"
   viewBox="0 0 12.7 12.7"
   version="1.1"
   id="svg4"
   sodipodi:docname="org.kde.plasma.activitypager.svg"
   inkscape:version="0.92.4 (5da689c313, 2019-01-14)">
  <metadata
     id="metadata10">
    <rdf:RDF>
      <cc:Work
         rdf:about="">
        <dc:format>image/svg+xml</dc:format>
        <dc:type
           rdf:resource="http://purl.org/dc/dcmitype/StillImage" />
        <dc:title></dc:title>
      </cc:Work>
    </rdf:RDF>
  </metadata>
  <defs
     id="defs8" />
  <sodipodi:namedview
     pagecolor="#ffffff"
     bordercolor="#666666"
     borderopacity="1"
     objecttolerance="10"
     gridtolerance="10"
     guidetolerance="10"
     inkscape:pageopacity="0"
     inkscape:pageshadow="2"
     inkscape:window-width="1087"
     inkscape:window-height="480"
     id="namedview6"
     showgrid="false"
     inkscape:zoom="4.9166667"
     inkscape:cx="2.1355932"
     inkscape:cy="24"
     inkscape:window-x="0"
     inkscape:window-y="25"
     inkscape:window-maximized="0"
     inkscape:current-layer="svg4" />
  <path
     d="M 6.34,0.07 A 6.29,6.29 0 0 0 0.05,6.37 6.29,6.29 0 0 0 6.35,12.65 6.29,6.29 0 0 0 12.63,6.36 6.29,6.29 0 0 0 6.34,0.07 Z M 6.32,1 6.33,1.01 a 5.4,5.4 0 0 1 5.4,5.4 5.4,5.4 0 0 1 -5.4,5.41 A 5.4,5.4 0 0 1 0.92,6.42 5.4,5.4 0 0 1 6.32,1 Z M 4.012,2.784 A 0.233,0.233 0 0 0 3.822,2.891 C 3.584,3.247 3.335,3.725 3.096,4.161 L 2.824,3.617 A 0.233222,0.233222 0 0 0 2.407,3.826 L 2.873,4.759 A 0.233,0.233 0 0 0 3.285,4.772 C 3.588,4.247 3.932,3.567 4.21,3.151 A 0.233,0.233 0 0 0 4.012,2.784 Z m 0.703,0.937 a 0.467,0.467 0 1 0 0,0.934 h 5.136 a 0.467,0.467 0 1 0 0,-0.934 z M 3.081,5.822 A 0.467,0.467 0 0 0 2.614,6.289 0.467,0.467 0 0 0 3.081,6.756 0.467,0.467 0 0 0 3.548,6.289 0.467,0.467 0 0 0 3.081,5.822 Z m 1.634,0 a 0.467,0.467 0 1 0 0,0.934 h 5.136 a 0.467,0.467 0 1 0 0,-0.934 z M 3.081,7.924 A 0.467,0.467 0 0 0 2.614,8.39 0.467,0.467 0 0 0 3.081,8.857 0.467,0.467 0 0 0 3.548,8.39 0.467,0.467 0 0 0 3.081,7.924 Z m 1.634,0 a 0.4665,0.4665 0 1 0 0,0.933 h 5.136 a 0.4665,0.4665 0 1 0 0,-0.933 z"
     id="path2"
     inkscape:connector-curvature="0"
     style="fill:#963996;stroke-width:3.77999997" />
</svg>
